X:1
T:Title
%%score { 1 | 2 }
L:1/8
M:4/4
K:F
V:1 treble nm="Grand Piano"
V:2 bass 
V:1
 z4 z2 z[Q:1/4=94] F | AA A>G F3 [CF] | [DG][DF] [DF]>D C3 C | C F3 A c3 | cA F>F [EG]3 [EG] | %5
[M:7/8] AAA>G F3 |[M:1/8] [CF] |[M:4/4] [DG][DF] [DB]>[DB] [DB]3 D | C F3 [FA] [Fc]3 | %9
[M:7/8] [Fc][FA][EG]>F F3 |[M:1/8] F |[M:4/4] G[EG] [EG]>[_E^F] [=EG]3 _A | AA A>_A =A3 B | %13
 ccdc c A3 | [=B,FG][B,FG] [B,FG]>[B,FA] [EG]3 [GB] | AA A>G F4 | [Ec][Ec] [Fc]>[GB] A4 | %17
 ABcc e d2 d |[M:7/8] cA[EG]>F F3 |] %19
V:2
 z4 z2 z [F,A,] | [F,CF][F,CF] [F,CF]>[F,B,C] [F,A,C]3 [A,,F,] | %2
 [B,,F,][B,,F,] [B,,F,]>[B,,F,B,] [F,A,]3 [F,A,] | [F,A,] [F,A,C]3 [F,CF] [F,A,F]3 | %4
 [F,A,F][F,CF] [E,C]>[D,=B,D] [C,C]3 [C,C] |[M:7/8] [F,CF][F,CF][F,CF]>[F,B,C] [F,A,C]3 | %6
[M:1/8] A,, |[M:4/4] [B,,B,][B,,B,] [B,,F,]>[B,,F,] [B,,F,]3 [B,,F,B,] | %8
 [C,F,A,] [C,A,C]3 [C,C] [C,A,]3 |[M:7/8] [C,A,][C,C][C,B,]>[F,A,] [F,A,]3 |[M:1/8] [A,C] | %11
[M:4/4] [CE][C,C] [C,C]>[C,C] [C,C]4 | [F,CF][F,CF] [CF]>[F,B,F] [F,CF]4 | %13
 [F,A,F][F,A,F][F,B,F][F,A,F] [F,A,F] [F,CF]3 | D,D, D,>G,, [C,C]3 [C,C] | %15
 [F,CF][F,CF] [F,CF]>[F,B,E] [F,A,]4 | [C,C][C,C] [D,C]>[E,C] [F,CF]4 | %17
 [F,CF][F,CE][K:treble][F,CF][F,A,F] [B,CF] [B,F]2 [=B,F_A] | %18
[M:7/8] [CFA][CF][K:bass][C,B,]>[F,A,] [F,A,]3 |] %19

